X:22
T:Humours of Ballyloughlin
R:jig
M:6/8
L:1/8
K:Dmix
A|A3 AGE|GED D3|~c3 cAd|dcA AGE|A3 AGE|GEG cGE|D3 DFA|D3 D2:|
B|c3 cAB|cAG ABc|d3 ded|dAF DFA|c2A d2B|cAG FGE|D3 DFA|D3 D2:|
e|f2d g2d|f2d g2d|cde ged|cde ged|f2d ged|f2d ged|cde gag|ed^c d2:|
B|A3 ABG|F3 GED|E3 EFD|E3 EFG|A3 dAG|F3 GEA|D3 DFA|D3 D2:|
